dist/svgs/unicons/line/car-slash.svg

<svg xmlns="http://www.w3.org/2000/svg" data-name="Layer 1" viewBox="0 0 24 24"><path d="M7 13a1 1 0 101 1 1 1 0 00-1-1zm12.76-3.89l-1.35-4.06a3 3 0 00-2.85-2h-5.9a1 1 0 000 2h5.9a1 1 0 011 .69L17.61 9h-1.95a1 1 0 000 2H19a1 1 0 011 1v3.34a1 1 0 102 0V12a3 3 0 00-2.24-2.89zm-16-6.82a1 1 0 00-1.47 1.42l2.82 2.81-.87 2.59A3 3 0 002 12v4a3 3 0 002 2.82V20a1 1 0 002 0v-1h11.59l.41.41V20a1 1 0 001 1 .91.91 0 00.46-.13l.83.84a1 1 0 001.42 0 1 1 0 000-1.42zm3 5.81l.9.9H6.39zM5 17a1 1 0 01-1-1v-4a1 1 0 011-1h4.59l2 2H11a1 1 0 000 2h2a.91.91 0 00.46-.13L15.59 17z"/></svg>

<svg xmlns="http://www.w3.org/2000/svg" data-name="Layer 1" viewBox="0 0 24 24"><path d="M7,13a1,1,0,1,0,1,1A1,1,0,0,0,7,13ZM19.76,9.11,18.41,5.05a3,3,0,0,0-2.85-2H9.66a1,1,0,0,0,0,2h5.9a1,1,0,0,1,1,.69L17.61,9H15.66a1,1,0,0,0,0,2H19a1,1,0,0,1,1,1v3.34a1,1,0,1,0,2,0V12A3,3,0,0,0,19.76,9.11Zm-16-6.82A1,1,0,0,0,2.29,3.71L5.11,6.52,4.24,9.11A3,3,0,0,0,2,12v4a3,3,0,0,0,2,2.82V20a1,1,0,0,0,2,0V19H17.59l.41.41V20a1,1,0,0,0,1,1,.91.91,0,0,0,.46-.13l.83.84a1,1,0,0,0,1.42,0,1,1,0,0,0,0-1.42Zm3,5.81.9.9H6.39ZM5,17a1,1,0,0,1-1-1V12a1,1,0,0,1,1-1H9.59l2,2H11a1,1,0,0,0,0,2h2a.91.91,0,0,0,.46-.13L15.59,17Z"/></svg>
